X:1
T:Title
%%score { ( 1 3 ) | 2 }
L:1/8
Q:1/4=100
M:6/8
K:Ab
V:1 bass nm="Grand Piano"
V:3 bass 
V:2 bass 
V:1
 [A,CE]2 [E,A,C][K:treble] [A,CF]2 [A,C] | [CE]2 [CF] [CE]3 | G2 F G2 F | E2 d [Ec]3 | %4
w: James~M.~Black * * *||||
 [Ec]2 [Ed] [Ee]2 [Ec] | [=Ec]2 [EB] A3 | AGA [=DB]2 [Dc] | [DB]3 .[DE]3 | .E6 | E2 c c3 | .E6 | %11
w: |||||||
 E2 [Gd] [Gd]3 | .c6 |[M:15/16] [Ee]->[Ee][_Ge][Fd]3/2- [Fd]3 | %14
w: |||
[M:3/4] FG A [=DB]2 [Dc][Q:1/4=97][Q:1/4=94][Q:1/4=91][Q:1/4=88][Q:1/4=84][Q:1/4=81][Q:1/4=78] | %15
w: |
 [DB]3 .[CA]3 |] %16
w: |
V:2
 A,,2 A,, A,,2 E, | [A,,A,]2 [A,,A,] [A,,A,]3 | [E,B,D]2 [E,A,D] [E,B,D]2 [E,A,D] | %3
 [E,G,D]2 [E,G,E] [A,,A,]3 | [A,,A,]2 [A,,A,B,] [A,C]2 [A,,A,] | [C,G,]2 [C,C] [F,CF]3 | %6
 [F,A,C][F,A,C][F,A,C] [B,,A,]2 [B,,A,] | [E,G,]3 .[E,G,]3 | %8
 [A,,A,][A,,A,][A,,A,] [A,,A,][A,,A,][E,A,] | [A,C]2 [A,E] [A,E]3 | %10
 [A,,A,][A,,A,][A,,A,] [A,,A,][A,,A,][E,A,] | [E,G,D]2 [E,B,] [E,B,]3 | %12
 [A,E]A,A, A,[K:treble][A,F][A,E] |[M:15/16][K:bass] [C,A,]->[C,A,][C,A,][D,A,]3/2- [D,A,]3 | %14
[M:3/4] [D,A,D][D,A,D] [D,F,D] [B,,F,]2 [B,,A,] | [E,G,]3 .[A,,A,]3 |] %16
V:3
 x3[K:treble] x3 | x6 | x6 | x6 | x6 | x6 | x6 | x6 | CCC C[CF]C | x6 | CCC C[CF]C | x6 | %12
 z AF Edc |[M:15/16] x15/2 |[M:3/4] x6 | x6 |] %16

